zondicons/svg/reply.svg

<svg width="20px" height="20px" viewBox="0 0 20 20" version="1.1" xmlns="http://www.w3.org/2000/svg" xmlns:xlink="http://www.w3.org/1999/xlink"><title>reply</title><desc>Created with Sketch.</desc><defs></defs><g id="Page-1" stroke="none" stroke-width="1" fill="none" fill-rule="evenodd"><g id="reply" fill="#000000"><path d="M15,17 L15,14.009763 C15,11.795232 13.2081782,10 10.9976305,10 L8,10 L8,15 L2,9 L8,3 L8,8 L10.9946916,8 C14.3113318,8 17,10.6930342 17,14 L17,17 L15,17 L15,17 Z" id="Combined-Shape"></path></g></g></svg>

<svg xmlns="http://www.w3.org/2000/svg" viewBox="0 0 20 20"><path d="M15 17v-2.99A4 4 0 0 0 11 10H8v5L2 9l6-6v5h3a6 6 0 0 1 6 6v3h-2z"/></svg>
